X:581
T:Cincinnati
S:Bruce & Emmett's Drummers and Fifers Guide (1862), p. 58
M:2/4
L:1/16
Q:1/4=100
K:A
%%MIDI program 72
%%MIDI transpose 8
%%MIDI ratio 3 1
E2|ABcd eAMA2|fAgA aAMA2|Fd Ec DB CA|BdcB AGFE|ABcd eAMA2|
fAgA aAMA2|Fd Ec DB CA|cBAG A2::cd|eAMA2 fAMA2|agae fedc|(f^ef)c (dcd)F|
BdcB AGFE|ABcd eAMA2|fAgA aAMA2|Fd Ec DB CA|cBAG A2:|

